src/svg/document-ppt-24-line.svg

<?xml version="1.0" encoding="UTF-8"?>
<svg id="Layer_1" data-name="Layer 1" xmlns="http://www.w3.org/2000/svg" viewBox="0 0 16 16">
  <defs>
    <style>
      .cls-1 {
        fill: none;
      }
    </style>
  </defs>
  <g>
    <path class="cls-1" d="M1.68,10.07c-.38,0-.53.26-.53.47v3.94c0,.24.16.51.51.51s.51-.27.51-.51v-1.45h.22c.23,0,.43-.04.62-.1v-2.75c-.19-.07-.4-.1-.62-.1h-.69ZM2.98,11.53v.04c0,.35-.3.51-.6.51h-.22v-1.06h.22c.3,0,.6.16.6.51Z"/>
    <path class="cls-1" d="M9,4.5c0,.28.22.5.5.5h2.29l-2.79-2.79v2.29Z"/>
    <g>
      <path class="cls-1" d="M2.38,11.03h-.22v1.06h.22c.3,0,.6-.16.6-.51v-.04c0-.35-.3-.51-.6-.51Z"/>
      <path d="M3.93,11.12c.04.13.06.26.06.4,0-.14-.03-.27-.06-.4Z"/>
      <path d="M3.99,11.58c0,.14-.03.28-.06.4.04-.13.06-.26.06-.4Z"/>
      <path d="M3,10.18c.14.05.26.12.38.19-.27-.19-.61-.3-1-.3h-.69c-.38,0-.53.26-.53.47v3.94c0,.24.16.51.51.51s.51-.27.51-.51v-1.45h.22c.39,0,.73-.11,1-.3-.11.08-.24.15-.38.19v-2.75ZM2.98,11.57c0,.35-.3.51-.6.51h-.22v-1.06h.22c.3,0,.6.16.6.51v.04Z"/>
      <path d="M3.72,10.69c.08.1.13.22.18.34-.04-.12-.1-.24-.18-.34Z"/>
      <path d="M3.72,12.42c-.08.11-.18.2-.28.28.11-.08.21-.17.28-.28Z"/>
      <path d="M3.72,12.41c.08-.1.13-.22.18-.35-.05.12-.1.24-.18.35Z"/>
      <path d="M3.43,10.41c.11.08.2.17.28.28-.08-.11-.18-.2-.28-.28Z"/>
      <path d="M3.93,11.98c.04-.13.06-.26.06-.4v-.05c0-.14-.03-.27-.06-.4,0-.03-.02-.06-.03-.09-.05-.12-.1-.24-.18-.34,0,0,0,0,0,0-.08-.11-.18-.2-.28-.28-.02-.01-.04-.03-.06-.04-.11-.08-.24-.15-.38-.19v2.75c.14-.05.26-.12.38-.19.02-.01.04-.03.06-.04.11-.08.21-.17.28-.28,0,0,0,0,0,0,.08-.1.13-.22.18-.35.01-.03.02-.06.03-.09Z"/>
    </g>
  </g>
  <g>
    <path class="cls-1" d="M9,4.5c0,.28.22.5.5.5h2.29l-2.79-2.79v2.29Z"/>
    <path class="cls-1" d="M5.97,13.04c.94,0,1.61-.62,1.61-1.46v-.05c0-.83-.67-1.45-1.61-1.45h-.69c-.38,0-.53.26-.53.47v3.41c.08.02.17.04.26.04h.75v-.96h.22ZM5.75,11.03h.22c.3,0,.6.16.6.51v.04c0,.35-.3.51-.6.51h-.22v-1.06Z"/>
    <path d="M5.97,10.07h-.69c-.38,0-.53.26-.53.47v3.94c0,.24.16.51.51.51s.51-.27.51-.51v-1.45h.22c.94,0,1.61-.62,1.61-1.46v-.05c0-.83-.67-1.45-1.61-1.45ZM6.57,11.57c0,.35-.3.51-.6.51h-.22v-1.06h.22c.3,0,.6.16.6.51v.04Z"/>
  </g>
  <g>
    <path d="M10.27,10.07c.36,0,.52.26.52.47s-.16.48-.52.48h-.51v3.46c0,.24-.16.51-.51.51s-.51-.27-.51-.51v-3.46h-.5c-.37,0-.53-.26-.53-.47s.15-.48.53-.48h2.03Z"/>
    <g>
      <path class="cls-1" d="M9,4.5c0,.28.22.5.5.5h2.29l-2.79-2.79v2.29Z"/>
      <path d="M12.56,4.35l-2.91-2.91c-.28-.28-.66-.44-1.06-.44h-3.59c-1.1,0-2,.9-2,2v6.15c.38.08.71.24,1,.44V3c0-.55.45-1,1-1h3v2.5c0,.83.67,1.5,1.5,1.5h2.5v7c0,.55-.45,1-1,1h-.24v.49c0,.18-.04.35-.09.51h.33c1.1,0,2-.9,2-2v-7.59c0-.4-.16-.78-.44-1.06ZM9.5,5c-.28,0-.5-.22-.5-.5v-2.29l2.79,2.79h-2.29Z"/>
    </g>
  </g>
</svg>

<svg width="16" height="16" viewBox="0 0 16 16" fill="none" xmlns="http://www.w3.org/2000/svg">
<path d="M5.28 10C4.9 10 4.75 10.26 4.75 10.47V14.41C4.75 14.65 4.91 14.92 5.26 14.92C5.61 14.92 5.77 14.65 5.77 14.41V12.96H5.99C6.93 12.96 7.6 12.34 7.6 11.5V11.45C7.6 10.62 6.93 10 5.99 10H5.28ZM6.57 11.5C6.57 11.85 6.27 12.01 5.97 12.01H5.75V10.95H5.97C6.27 10.95 6.57 11.11 6.57 11.46V11.5Z" fill="black"/>
<path d="M1.53 10C1.15 10 1 10.26 1 10.47V14.41C1 14.65 1.16 14.92 1.51 14.92C1.86 14.92 2.02 14.65 2.02 14.41V12.96H2.24C3.18 12.96 3.85 12.34 3.85 11.5V11.45C3.85 10.62 3.18 10 2.24 10H1.53ZM2.82 11.5C2.82 11.85 2.52 12.01 2.22 12.01H2V10.95H2.22C2.52 10.95 2.82 11.11 2.82 11.46V11.5Z" fill="black"/>
<path d="M10.27 10C10.63 10 10.79 10.26 10.79 10.47C10.79 10.68 10.63 10.95 10.27 10.95H9.76V14.41C9.76 14.65 9.6 14.92 9.25 14.92C8.9 14.92 8.74 14.65 8.74 14.41V10.95H8.24C7.87 10.95 7.71 10.69 7.71 10.48C7.71 10.27 7.86 10 8.24 10H10.27Z" fill="black"/>
<path d="M12.56 4.35L9.65 1.44C9.37 1.16 8.99 1 8.59 1H5C3.9 1 3 1.9 3 3V9.15C3.38 9.23 3.71 9.39 4 9.59V3C4 2.45 4.45 2 5 2H8V4.5C8 5.33 8.67 6 9.5 6H12V13C12 13.55 11.55 14 11 14H10.76V14.49C10.76 14.67 10.72 14.84 10.67 15H11C12.1 15 13 14.1 13 13V5.41C13 5.01 12.84 4.63 12.56 4.35ZM9.5 5C9.22 5 9 4.78 9 4.5V2.21L11.79 5H9.5Z" fill="black"/>
</svg>
